src/main/resources/icons/SpringCoreIcons/icons/transactionManager.svg

<svg xmlns="http://www.w3.org/2000/svg" width="16" height="16" viewBox="0 0 16 16">
  <g fill="none" fill-rule="evenodd">
    <path fill="#9AA7B0" fill-opacity=".8" d="M14.1839318,10 L9.13723548,10 C9.83174001,9.60413371 10.2999997,8.85685438 10.2999997,8.00019773 C10.2999997,6.72983349 9.27025466,5.69999981 7.99999976,5.69999981 C6.72974486,5.69999981 5.69999981,6.72983349 5.69999981,8.00019773 C5.69999981,8.85685438 6.16825951,9.60413371 6.86276404,10 L4,10 L4,11.9760876 L3.1703829,12.3503459 C2.5654833,11.6792367 2.0984715,10.8814083 1.8139829,10.0014962 L3.29218604,8.94092614 C3.23171292,8.63665953 3.20000005,8.32203335 3.20000005,8.00000024 C3.20000005,7.67796698 3.23171295,7.36334066 3.29218612,7.05907392 L1.8139829,5.99850385 C2.0984715,5.11859166 2.5654833,4.32076327 3.1703829,3.64965409 L4.82794202,4.39741509 C5.29970989,3.98170311 5.85378059,3.65720451 6.46257226,3.45150114 L6.64317522,1.64182422 C7.08079213,1.54889386 7.53468618,1.5 8,1.5 C8.46531382,1.5 8.91920787,1.54889386 9.35682478,1.64182422 L9.53742772,3.45150097 C10.1462195,3.65720431 10.7002903,3.98170292 11.1720583,4.39741495 L12.8296171,3.64965409 C13.4345167,4.32076327 13.9015285,5.11859166 14.1860171,5.99850385 L12.7078143,7.05907362 C12.7682875,7.36334046 12.8000004,7.67796687 12.8000004,8.00000024 C12.8000004,8.32203346 12.7682875,8.63665973 12.7078144,8.94092644 L14.1839318,10 Z"/>
    <path fill="#40B6E0" d="M5,11 L13,11 L13,12 C13,14.209139 11.209139,16 9,16 L9,16 C6.790861,16 5,14.209139 5,12 L5,11 Z"/>
    <path fill="#40B6E0" d="M10.5,12 L14.5,12 C15.3284271,12 16,12.6715729 16,13.5 C16,14.3284271 15.3284271,15 14.5,15 L10.5,15 C9.67157288,15 9,14.3284271 9,13.5 C9,12.6715729 9.67157288,12 10.5,12 Z M10.5,13 C10.2238576,13 10,13.2238576 10,13.5 C10,13.7761424 10.2238576,14 10.5,14 L14.5,14 C14.7761424,14 15,13.7761424 15,13.5 C15,13.2238576 14.7761424,13 14.5,13 L10.5,13 Z"/>
  </g>
</svg>

<svg xmlns="http://www.w3.org/2000/svg" width="16" height="16" viewBox="0 0 16 16"><rect id="frame" width="16" height="16" fill="none"/><g fill="none" fill-rule="evenodd"><path fill="#9AA7B0" fill-opacity=".8" d="M14.184 10H9.137a2.3 2.3 0 1 0-2.274 0H4v1.976l-.83.374a6.493 6.493 0 0 1-1.356-2.349l1.478-1.06a4.823 4.823 0 0 1 0-1.882L1.814 6a6.493 6.493 0 0 1 1.356-2.35l1.658.748a4.795 4.795 0 0 1 1.635-.945l.18-1.81a6.526 6.526 0 0 1 2.714 0l.18 1.81c.61.205 1.163.53 1.635.945l1.658-.747a6.493 6.493 0 0 1 1.356 2.349l-1.478 1.06a4.823 4.823 0 0 1 0 1.882L14.184 10z"/><path fill="#40B6E0" d="M5 11h8v1a4 4 0 1 1-8 0v-1z"/><path fill="#40B6E0" d="M10.5 12h4a1.5 1.5 0 0 1 0 3h-4a1.5 1.5 0 0 1 0-3zm0 1a.5.5 0 1 0 0 1h4a.5.5 0 1 0 0-1h-4z"/></g></svg>
